X: 1126
T: Hüzzam Seyir
C: Erol Bingöl
O: Turkey
F: http://compmusic.upf.edu/node/140
N: huzzam--seyir--duyek--1--erol_bingol
N: makam= huzzam
N: form= seyir
N: usul= duyek = 8/4
M: 8/4
L: 1/16
K: C _1/4B _3/4e ^3/4f 
Q: 1/4=120
%%MIDI tuningsystem comma53
z2 c4 d2 d4 e2 g2  | f3e fe ed d8  | \
w:   |   | 
f2 g4 f2 g2 a2 _b2 ag  | 
w:   | 
c'_b ag fe ed d8  | f2 g2 a2 b2 c'2 d'2 c'2 _b2  | \
w:   |   | 
a2 gf ed cd e8  | 
w:   | 
d2 e4 d2 e2 g2 f2 e2  | d3c dc cB B8  | |


